src/assets/images/footer-github.svg

<?xml version="1.0" encoding="UTF-8"?>
<svg width="20px" height="20px" viewBox="0 0 20 20" version="1.1" xmlns="http://www.w3.org/2000/svg" xmlns:xlink="http://www.w3.org/1999/xlink">
    <title>footer-github</title>
    <g id="Page-1" stroke="none" stroke-width="1" fill="none" fill-rule="evenodd">
        <g id="footer-github" fill="#FFFFFF" fill-rule="nonzero">
            <path d="M9.99999853,0 C4.475,0 -1.47181047e-06,4.475 -1.47181047e-06,10 C-0.00232617029,14.3054085 2.7529015,18.1283977 6.838,19.488 C7.338,19.575 7.525,19.275 7.525,19.012 C7.525,18.775 7.512,17.988 7.512,17.15 C4.99999853,17.613 4.35,16.538 4.15,15.975 C4.037,15.687 3.55,14.8 3.125,14.562 C2.775,14.375 2.275,13.912 3.112,13.9 C3.9,13.887 4.462,14.625 4.65,14.925 C5.55,16.437 6.988,16.012 7.562,15.75 C7.65,15.1 7.912,14.663 8.2,14.413 C5.975,14.163 3.65,13.3 3.65,9.475 C3.65,8.387 4.037,7.488 4.675,6.787 C4.575,6.537 4.225,5.512 4.775,4.137 C4.775,4.137 5.612,3.875 7.525,5.163 C8.33906287,4.93706071 9.18016618,4.82334354 10.025,4.825 C10.875,4.825 11.725,4.937 12.525,5.162 C14.437,3.862 15.275,4.138 15.275,4.138 C15.825,5.513 15.475,6.538 15.375,6.788 C16.012,7.488 16.4,8.375 16.4,9.475 C16.4,13.313 14.063,14.163 11.838,14.413 C12.2,14.725 12.513,15.325 12.513,16.263 C12.513,17.6 12.4999985,18.675 12.4999985,19.013 C12.4999985,19.275 12.688,19.587 13.188,19.487 C17.2582341,18.112772 19.9988366,14.295964 19.9999985,10 C19.9999985,4.475 15.525,0 9.99999853,0 Z" id="Path"></path>
        </g>
    </g>
</svg>

<svg xmlns="http://www.w3.org/2000/svg" viewBox="0 0 20 20"><path d="M10 0C4.475 0 0 4.475 0 10a9.994 9.994 0 0 0 6.838 9.488c.5.087.687-.213.687-.476 0-.237-.013-1.024-.013-1.862-2.512.463-3.162-.612-3.362-1.175-.113-.288-.6-1.175-1.025-1.413-.35-.187-.85-.65-.013-.662.788-.013 1.35.725 1.538 1.025.9 1.512 2.338 1.087 2.912.825.088-.65.35-1.087.638-1.337-2.225-.25-4.55-1.113-4.55-4.938 0-1.088.387-1.987 1.025-2.688-.1-.25-.45-1.275.1-2.65 0 0 .837-.262 2.75 1.026a9.28 9.28 0 0 1 2.5-.338c.85 0 1.7.112 2.5.337 1.912-1.3 2.75-1.024 2.75-1.024.55 1.375.2 2.4.1 2.65.637.7 1.025 1.587 1.025 2.687 0 3.838-2.337 4.688-4.562 4.938.362.312.675.912.675 1.85 0 1.337-.013 2.412-.013 2.75 0 .262.188.574.688.474A10.016 10.016 0 0 0 20 10c0-5.525-4.475-10-10-10Z" fill="#FFF" fill-rule="nonzero"/></svg>
